X:36
T:Le Cygne form Le Carnivaldes The Animaux
C:Saint-Saens
N:
L:1/8
Q:1/4=87
M:3/4
K:G
z6 | z6 | g/4g/4g/4g/4g/4g/4g/4g/4 f/4f/4f/4f/4f/4f/4f/4f/4 B/4B/4B/4B/4B/4B/4B/ | 
e/4e/4e/4e/4e/4e/4e/4e/4 d/4d/4d/4d/4d/4d/4d/4d/4 G/4G/4G/4G/4G/4G/4G/ | A/4A/4A/4A/4A/4A/4A/4A/4 A/4A/4A/4A/4A/4A/4A/4A/4 A/4A/4A/B/4B/4B/4B/4 | 
c/4c/4c/4c/4c/4c/4c/4c/4 c/4c/4c/4c/4c/4c/4c/4c2z/4 | E/4E/4E/4E/4E/4E/4E/4E/4 E/4E/4E/4E/4E/4E/4E/ F/4F/4F/G/4G/4G/ | 
A/4A/4A/4A/4B/4B/4B/4B/4 c/4c/4c/d/4d/4d/ e/4e/4e/f/4f/4f/ | b/4b/4b/4b/4b/4b/4b/4b/4 b/4b/4b/4b/4b/4b/4b/4b/4 b/4b/4b/4b/4b/4b/4b/4b/4 | 
b/4b/4b/4b/4b/4b/4b/4b4z/4 | g/4g/4g/4g/4g/4g/4g/4g/4 f/4f/4f/4f/4f/4f/4f/4f/4 B/4B/4B/4B/4B/4B/4B/ | 
e/4e/4e/4e/4e/4e/4e/4e/4 d/4d/4d/4d/4d/4d/4d/4d/4 G/4G/4G/4G/4G/4G/4G/ | ^A/4A/4A/4A/4A/4A/4A/4A/4 A/4A/4A/4A/4A/4A/4A/4A/4 A/4A/4A/B/4B/4B/4B/4 | 
^c/4c/4c/4c/4c/4c/4c/4c/4 c/4c/4c/4c/4c/4c/4c/4c/4 c/4c/4c/4c/4c/4c/4c/ | F/4F/4F/4F/4F/4F/4F/4F/4 F/4F/4F/4F/4^G/4G/4G/ ^A/4A/4A/B/4B/4B/ | 
^c/4c/4c/4c/4d/4d/4d/4d/4 e/4e/4e/f/4f/4f/ ^g/4g/4g/^a/4a/4a/ | d'/4d'/4d'/4d'/4d'/4d'/4d'/4d'/4 d'/4d'/4d'/4d'/4d'/4d'/4d'/4d'/4 d'/4d'/4d'/4d'/4d'/4d'/4d'/4d'/4 | 
d'/4d'/4d'/4d'/4d'/4d'/4d'/4d'4z/4 | d'/4d'/4d'/4d'/4d'/4d'/4d'/4d'/4 b/4b/4b/4b/4b/4b/4b/4b/4 g/4g/4g/4g/4g/4g/4g/ | 
e/4e/4e/4e/4e/4e/4e/4e/4 f/4f/4f/4f/4f/4f/4f/4f/4 g/4g/4g/4g/4g/4g/4g/ | d/4d/4d/4d/4d/4d/4d/4d/4 d/4d/4d/4d/4d/4d/4d/4d/4 d/4d/4d/e/4e/4e/4e/4 | 
f/4f/4f/4f/4f/4f/4f/4f/4 f/4f/4f/4f/4f/4f/4f/4f2z/4 | c'/4c'/4c'/4c'/4c'/4c'/4c'/4c'/4 a/4a/4a/4a/4a/4a/4a/4a/4 =f/4f/4f/4f/4f/4f/4f/ | 
d/4d/4d/4d/4d/4d/4d/4d/4 e/4e/4e/4e/4e/4e/4e/4e/4 =f/4f/4f/4f/4f/4f/4f/ | c/4c/4c/4c/4c/4c/4c/4c/4 c/4c/4c/4c/4c/4c/4c/4c/4 c/4c/4c/d/4d/4d/4d/4 | 
e/4e/4e/4e/4e/4e/4e/4e/4 e/4e/4e/4e/4e/4e/4e/4e2z/4 | e/4e/4e/4e/4e/4e/4e/4e/4 A/4A/4A/4A/4A/4A/4A/4A/4 B/4B/4B/4B/4B/4B/4B/ | 
c/4c/4c/4c/4c/4c/4c/4c/4 c/4c/4c/4c/4c/4c/4c/ d/4d/4d/e/4e/4e/ | f/4f/4f/4f/4f/4f/4f/4f/4 f/4f/4f/4f/4f/4f/4f/4f/4 f/4f/4f/4f/4f/4f/4f/4f/4 | 
e/4e/4e/4e/4e/4e/4e/4e/4 e/4e/4e/4e/4e/4e/4e/4e2z/4 | e/4e/4e/4e/4e/4e/4e/4e/4 A/4A/4A/4A/4A/4A/4A/4A/4 B/4B/4B/4B/4B/4B/4B/ | 
^c/4c/4c/4c/4c/4c/4c/4c/4 c/4c/4c/4c/4c/4c/4c/ d/4d/4d/e/4e/4e/ | =f/4f/4f/4f/4f/4f/4f/4f/4 f/4f/4f/4f/4f/4f/4f/4f/4 f/4f/4f/4f/4f/4f/4f/4f/4 | 
f/4f/4f/4f/4f/4f/4f/4f/4 f/4f/4f/4f/4f/4f/4f/4f/4 f/4f/4f/4f/4f/4f/4f/ | g/4g/4g/4g/4g/4g/4g/4g/4 f/4f/4f/4f/4f/4f/4f/4f/4 B/4B/4B/4B/4B/4B/4B/ | 
e/4e/4e/4e/4e/4e/4e/4e/4 d/4d/4d/4d/4d/4d/4d/4d/4 G/4G/4G/4G/4G/4G/4G/ | A/4A/4A/4A/4A/4A/4A/4A/4 A/4A/4A/4A/4A/4A/4A/4A/4 A/4A/4A/B/4B/4B/4B/4 | 
c/4c/4c/4c/4c/4c/4c/4c/4 c/4c/4c/4c/4c/4c/4c/4c2z/4 | E/4E/4E/4E/4E/4E/4E/4E/4 E/4E/4E/4E/4E/4E/4E/ F/4F/4F/G/4G/4G/ | 
A/4A/4A/4A/4B/4B/4B/4B/4 c/4c/4c/d/4d/4d/ e/4e/4e/f/4f/4f/ | b/4b/4b/4b/4b/4b/4b/4b/4 b/4b/4b/4b/4b/4b/4b/4b/4 b/4b/4b/4b/4b/4b/4b/4b/4 | 
b/4b/4b/4b/4b/4b/4b/4b/4 b/4b/4b/4b/4b/4b/4b/4b/4 b/4b/4b/4b/4b/4b3/4 | b/4b/4b/4b/4b/4b/4b/4b/4 a/4a/4a/4a/4a/4a/4a/4a/4 e/4e/4e/4e/4e/4e/4e/ | 
g/4g/4g/4g/4g/4g/4g/4g/4 f/4f/4f/4f/4f/4f/4f/4f/4 c/4c/4c/4c/4c/4c/4c/ | e/4e/4e/4e/4e/4e/4e/4e/4 d/4d/4d/4d/4d/4d/4d/4d/4 G/4G/4G/4G/4G/4G/4G/ | 
A/4A/4A/4A/4A/4A/4A/4A/4 B/4B/4B/4B/4B/4B/4B/4B/4 G/4G/4G/4G/4G/4G/4G/ | B/4B/4B/4B/4B/4B/4B/4B/4 B/4B/4B/4B/4B/4B/4B/4B/4 B/4B/4B/4B/4B/4B/4B/ | 
c/4c/4c/4c/4c/4c/4c/4c/4 d/4d/4d/4d/4d/4d/4d/4d/4 B/4B/4B/4B/4B/4B/4B/ | e/4e/4e/4e/4e/4e/4e/4e/4 e/4e/4e/4e/4e/4e/4e/4e/4 e/4e/4e/4e/4e/4e/4e/ | 
e/4e/4e/4e/4e/4e/4e/4e/4 f/4f/4f/4f/4f/4f/4f/4f/4 d/4d/4d/4d/4d/4d/4d/ | z/4g/4g/4g/4g/4g/4g/4g/4 g/4g/4g/4g/4g/4g/4g/4g/4 g/4g/4g/4g/4g/4g/4g/4g/4 | 
g/4g/4g/4g/4g/4g/4g/4g/4 g/4g/4g/4g/4g/4g/4g/4g/4 g/4g/4g/4g/4g/4g/4g/4g/4 | g/4g/4g/4g/4g/4g/4g/4g/4 g/4g/4g/4g/4g/4g/4g/4g/4 g/4g/4g/4g/4g/4g/4g/4g/4 | 
z/4g/4g/4g/4g/4g/4g/4g4z/4 | z6 | z6 | 
 

